assets/images/ico_email.svg

<svg width="27" height="17" viewBox="0 0 27 17" fill="none" xmlns="http://www.w3.org/2000/svg">
<path d="M13.83 8.95826C13.62 9.04696 13.38 9.04696 13.2 8.95826L0 2.6313V0.709566C0 0.325218 0.33 0 0.72 0H26.28C26.67 0 27 0.325218 27 0.709566V2.66087L13.83 8.95826ZM0 4.40522V16.2904C0 16.6748 0.33 17 0.72 17H26.28C26.67 17 27 16.6748 27 16.2904V4.40522L13.83 10.7322C13.62 10.8209 13.38 10.8209 13.2 10.7322L0 4.40522Z" fill="black"/>
</svg>

<svg width="27" height="17" fill="none" xmlns="http://www.w3.org/2000/svg"><path d="M13.83 8.958a.778.778 0 01-.63 0L0 2.631V.71C0 .325.33 0 .72 0h25.56c.39 0 .72.325.72.71v1.95L13.83 8.959zM0 4.405V16.29c0 .385.33.71.72.71h25.56c.39 0 .72-.325.72-.71V4.405l-13.17 6.327a.778.778 0 01-.63 0L0 4.405z" fill="#000"/></svg>
